svgs/regular/bullseye-pointer.svg

<svg xmlns="http://www.w3.org/2000/svg" viewBox="0 0 512 512"><!--! Font Awesome Pro 6.2.0 by @fontawesome - https://fontawesome.com License - https://fontawesome.com/license (Commercial License) Copyright 2022 Fonticons, Inc. --><path d="M256 464C370.9 464 464 370.9 464 256C464 141.1 370.9 48 256 48C141.1 48 48 141.1 48 256C48 261.5 48.21 266.9 48.63 272.3L1.754 286.1C.5958 276.2 0 266.2 0 256C0 114.6 114.6 0 256 0C397.4 0 512 114.6 512 256C512 397.4 397.4 512 256 512C245.8 512 235.8 511.4 225.9 510.2L239.7 463.4C245.1 463.8 250.5 464 256 464zM267.9 367.4C324.2 361.4 368 313.8 368 256C368 194.1 317.9 144 256 144C198.2 144 150.6 187.8 144.6 244.1L96.02 258.4C96.01 257.6 96 256.8 96 256C96 167.6 167.6 96 256 96C344.4 96 416 167.6 416 256C416 344.4 344.4 416 256 416C255.2 416 254.4 415.1 253.6 415.1L267.9 367.4zM39.01 308.5L243.9 248.3C256 244.7 267.3 255.1 263.7 268.1L203.5 472.1C199.4 486.9 180.3 488.6 173.8 475.6L145.2 418.3C144.5 416.1 143.6 415.7 142.6 414.6L54.63 502.6C42.13 515.1 21.87 515.1 9.373 502.6C-3.124 490.1-3.124 469.9 9.373 457.4L97.36 369.4C96.26 368.4 95.02 367.5 93.68 366.8L36.37 338.2C23.38 331.7 25.07 312.6 39.01 308.5V308.5z"/></svg>

<svg xmlns="http://www.w3.org/2000/svg" viewBox="0 0 512 512"><!--! Font Awesome Pro 6.3.0 by @fontawesome - https://fontawesome.com License - https://fontawesome.com/license (Commercial License) Copyright 2023 Fonticons, Inc. --><path d="M256 464c114.9 0 208-93.1 208-208s-93.1-208-208-208S48 141.1 48 256c0 5.5 .2 10.9 .6 16.3L1.8 286.1C.6 276.2 0 266.2 0 256C0 114.6 114.6 0 256 0S512 114.6 512 256s-114.6 256-256 256c-10.2 0-20.2-.6-30.1-1.8l13.8-46.9c5.4 .4 10.8 .6 16.3 .6zm-2.4-48l14.3-48.6C324.2 361.4 368 313.8 368 256c0-61.9-50.1-112-112-112c-57.8 0-105.4 43.8-111.4 100.1L96 258.4c0-.8 0-1.6 0-2.4c0-88.4 71.6-160 160-160s160 71.6 160 160s-71.6 160-160 160c-.8 0-1.6 0-2.4 0zM39 308.5l204.8-60.2c12.2-3.6 23.4 7.7 19.9 19.9L203.5 473c-4.1 13.9-23.2 15.6-29.7 2.6l-28.7-57.3c-.7-1.3-1.5-2.6-2.5-3.7l-88 88c-12.5 12.5-32.8 12.5-45.3 0s-12.5-32.8 0-45.3l88-88c-1.1-1-2.3-1.9-3.7-2.5L36.4 338.2c-13-6.5-11.3-25.6 2.6-29.7z"/></svg>
